X: 57
T:Smeceno Horo
T:Bulgarian Dance Tune
M:8/8
F:http://blackrosetheband.googlepages.com/ABCTUNES.ABC May 2009
L:1/8
C:Traditional
O:M9/8
K:G
"D"^cdd {=c/2d/2}=c2 {c/2d/2}B2 A|M:7/8 cBA {Bc}B2 AG|M:11/8 FFFD ED FF EED|M:7/8|1 cBA "G"B^G "D"A2:|2 FFD "A"E^C "D"Dz:||
M:11/8 "D"FFFD ED FF EED|M:7/8 cBA "G"{Bc}B2 AG|M:11/8 "D"FFFD ED FF EED |M:7/8|1 cBA "G"B^G "D"A2:|2 FFD "A"E^C "D"Dz:||
M:8/8 "D"{AB}A2 {AB}AD E=F ^GA|M:7/8 cBA "G"{Bc}B2 A=G|M:11/8  "D"FFFD ED FF EED|M:7/8|1 cBA "G"B^G "D"A2:|2 FFD "A"E^C "D"Dz:||
M:11/8 "D"FFFD ED FF EED|M:7/8 FFD "A"E^C "D"DE|M:11/8 FFFD ED FF EED|[M:7/8] FFD "A"E^C "D"Dz:||
M:9/8 "D"ABBA AG FFD|FGA BA AG F2|ABBA AG FFD|FGA BA AG F2:||
M:9/8 "D"Bdc "G"{Bc}B2 D "D"AAG|F2 G2 FFG A2|Bdc "G"{Bc}B2 D "D"AAG|F2 G2 FFD "E"Ez:||
M:9/8 "E"E=F^GA BE "F"cBA|Bc "E"BBA ^GA Bc|"F"d c2 B2 A cBA|"E"^GA "F"GG=F GD "E"Ez:||
M:9/8 "F"d c2 B2 A cBA|"E"^GA "F"GGF GA Bc|d c2 B2 A cBA|"E"^GA "F"GGF GD "E"Ez:||

